icons/gift-2-line.svg

<svg viewBox="0 0 24 24" fill="currentColor" xmlns="http://www.w3.org/2000/svg">
    <path d="M14.5049 2.00281C16.4379 2.00281 18.0049 3.56981 18.0049 5.50281C18.0049 6.04001 17.8839 6.54895 17.6676 7.00385L21.0049 7.00281C21.5572 7.00281 22.0049 7.45052 22.0049 8.00281V12.0028C22.0049 12.5551 21.5572 13.0028 21.0049 13.0028H20.0049V21.0028C20.0049 21.5551 19.5572 22.0028 19.0049 22.0028H5.00488C4.4526 22.0028 4.00488 21.5551 4.00488 21.0028V13.0028H3.00488C2.4526 13.0028 2.00488 12.5551 2.00488 12.0028V8.00281C2.00488 7.45052 2.4526 7.00281 3.00488 7.00281L6.34219 7.00385C6.12591 6.54895 6.00488 6.04001 6.00488 5.50281C6.00488 3.56981 7.57189 2.00281 9.50488 2.00281C10.4849 2.00281 11.3708 2.40557 12.0061 3.05459C12.639 2.40557 13.5249 2.00281 14.5049 2.00281ZM18.0049 13.0028H6.00488V20.0028H18.0049V13.0028ZM20.0049 9.00281H4.00488V11.0028H20.0049V9.00281ZM9.50488 4.00281C8.67646 4.00281 8.00488 4.67438 8.00488 5.50281C8.00488 6.2825 8.59977 6.92326 9.36042 6.99594L9.50488 7.00281H11.0049V5.50281C11.0049 4.72311 10.41 4.08236 9.64934 4.00967L9.50488 4.00281ZM14.5049 4.00281L14.3604 4.00967C13.6473 4.07782 13.0799 4.64524 13.0117 5.35835L13.0049 5.50281V7.00281H14.5049L14.6493 6.99594C15.41 6.92326 16.0049 6.2825 16.0049 5.50281C16.0049 4.72311 15.41 4.08236 14.6493 4.00967L14.5049 4.00281Z"/>
</svg>

<svg xmlns="http://www.w3.org/2000/svg" viewBox="0 0 24 24">
    <g>
        <path fill="none" d="M0 0h24v24H0z"/>
        <path fill-rule="nonzero" d="M14.5 2a3.5 3.5 0 0 1 3.163 5.001L21 7a1 1 0 0 1 1 1v4a1 1 0 0 1-1 1h-1v8a1 1 0 0 1-1 1H5a1 1 0 0 1-1-1v-8H3a1 1 0 0 1-1-1V8a1 1 0 0 1 1-1l3.337.001a3.5 3.5 0 0 1 5.664-3.95A3.48 3.48 0 0 1 14.5 2zM18 13H6v7h12v-7zm2-4H4v2h16V9zM9.5 4a1.5 1.5 0 0 0-.144 2.993L9.5 7H11V5.5a1.5 1.5 0 0 0-1.356-1.493L9.5 4zm5 0l-.144.007a1.5 1.5 0 0 0-1.35 1.349L13 5.5V7h1.5l.144-.007a1.5 1.5 0 0 0 0-2.986L14.5 4z"/>
    </g>
</svg>
